!!!COM: Sammut, Robert
!!!CDT: 1870-1934
!!!OTL: National Anthem; Malta - Innu Malti (Hymn to Malta)
!!!ENC: Davis, Matthew J.
!!Vocal Line Only
**kern
*clefG2
*k[f#c#g#]
*A:
*M4/4
=1-
1r
=2
2a
4a
4a
=3
4a
[4a
8a]
8r
8a
8b
=4
2cc#
8dd
8cc#
8b
8a
=5
4b
[4b
8b]
8r
4r
=6
2ee
4dd
4ff#
=7
2ee
4dd
4b
=8
4.a
8cc#
8ee
8dd
8cc#
8b
=9
2b
4a
4r
=10
2ee
4dd
4ff#
=11
2ee
4dd
4b
=12
4.a
8cc#
8ee
8dd
8cc#
8b
=13
2b
2a
==|!
*-
